X: 11
M:6/8
L:1/8
Q:110
K:DDor
eg2 gaf|e>fg c>fe|d>cB A>ag|f3 e>ag|eg2 ce2|d>cB A>fe|f>ga b>ag|ae2 d3||

